assets/icons/folder/_.svg

<?xml version="1.0" encoding="UTF-8" standalone="no"?>
<svg viewBox="0 0 24 24" height="24" width="24" version="1.1" id="svg4" sodipodi:docname="_.svg" inkscape:version="1.1 (ce6663b3b7, 2021-05-25)"
   xmlns:inkscape="http://www.inkscape.org/namespaces/inkscape"
   xmlns:sodipodi="http://sodipodi.sourceforge.net/DTD/sodipodi-0.dtd"
   xmlns="http://www.w3.org/2000/svg"
   xmlns:svg="http://www.w3.org/2000/svg">
   <defs id="defs8" />
   <sodipodi:namedview id="namedview6" pagecolor="#ffffff" bordercolor="#666666" borderopacity="1.0" inkscape:pageshadow="2" inkscape:pageopacity="0.0" inkscape:pagecheckerboard="0" showgrid="true" inkscape:zoom="28" inkscape:cx="8.0178571" inkscape:cy="14.125" inkscape:window-width="1920" inkscape:window-height="1016" inkscape:window-x="0" inkscape:window-y="27" inkscape:window-maximized="1" inkscape:current-layer="svg4">
      <inkscape:grid type="xygrid" id="grid821" />
      <inkscape:grid type="xygrid" id="grid823" dotted="true" spacingx="0.5" spacingy="0.5" empspacing="10" />
   </sodipodi:namedview>
   <path id="path858" style="color:#000000;fill:#808080;stroke-linecap:round;-inkscape-stroke:none;fill-opacity:1" d="M 5.4550781 3 C 4.4864972 3.0089807 3.7372591 3.0732694 3.1171875 3.4453125 C 2.7038064 3.6933412 2.3972496 4.10122 2.2285156 4.6074219 C 2.0597817 5.1136238 2 5.722223 2 6.5 L 2 12.501953 L 2 17.5 C 2 18.277777 2.058558 18.891309 2.25 19.408203 C 2.4414421 19.925097 2.8029634 20.335075 3.2773438 20.572266 C 4.2261043 21.046646 5.500002 21 7.5 21 L 17.5 21 C 18.999998 21 20.05605 21.05074 20.882812 20.554688 C 21.296194 20.306659 21.60275 19.89878 21.771484 19.392578 C 21.940218 18.886376 22 18.277777 22 17.5 L 22 9.5 C 22 8.722223 21.94022 8.1136238 21.771484 7.6074219 C 21.60275 7.10122 21.296194 6.6933412 20.882812 6.4453125 C 20.056051 5.9492552 18.999998 6 17.5 6 L 13.707031 6 L 10.853516 3.1464844 A 0.5 0.5 0 0 0 10.761719 3.0761719 A 0.5 0.5 0 0 0 10.730469 3.0585938 A 0.5 0.5 0 0 0 10.640625 3.0214844 A 0.5 0.5 0 0 0 10.621094 3.015625 A 0.5 0.5 0 0 0 10.5 3 L 6.5 3 C 6.1250004 3 5.7779384 2.9970064 5.4550781 3 z M 6.5 4 L 10.292969 4 L 12.792969 6.5 L 10.291016 9.0019531 L 6.5 9.0019531 C 5.0000015 9.0019531 3.9439497 8.9512081 3.1171875 9.4472656 C 3.0768429 9.4714724 3.0382808 9.4981959 3 9.5253906 L 3 6.5 C 3 5.7777785 3.065219 5.2613754 3.1777344 4.9238281 C 3.2902501 4.5862809 3.4211942 4.4316585 3.6328125 4.3046875 C 4.056049 4.0507456 5.0000015 4 6.5 4 z M 13.707031 7 L 17.5 7 C 18.999998 7 19.943951 7.050746 20.367188 7.3046875 C 20.578806 7.4316585 20.70975 7.5862809 20.822266 7.9238281 C 20.934781 8.2613754 21 8.7777785 21 9.5 L 21 17.5 C 21 18.222221 20.93478 18.738625 20.822266 19.076172 C 20.70975 19.413719 20.578807 19.568342 20.367188 19.695312 C 19.943952 19.949254 18.999999 20 17.5 20 L 7.5 20 C 5.500002 20 4.273894 19.95335 3.7226562 19.677734 C 3.4470373 19.539925 3.3085576 19.387402 3.1875 19.060547 C 3.0664424 18.733691 3 18.222221 3 17.5 L 3 12.501953 C 3 11.779732 3.065219 11.263329 3.1777344 10.925781 C 3.2902501 10.588234 3.4211942 10.431657 3.6328125 10.304688 C 4.056049 10.050745 5.0000015 10.001953 6.5 10.001953 L 10.5 10.001953 A 0.5 0.5 0 0 0 10.533203 9.9960938 A 0.5 0.5 0 0 0 10.654297 9.9726562 A 0.5 0.5 0 0 0 10.71875 9.9453125 A 0.5 0.5 0 0 0 10.833984 9.8691406 A 0.5 0.5 0 0 0 10.853516 9.8535156 L 13.707031 7 z " />
</svg>

<svg height="24" width="24" xmlns="http://www.w3.org/2000/svg"><path style="color:#000;fill:gray;stroke-linecap:round;-inkscape-stroke:none;fill-opacity:1" d="M5.455 3c-.969.009-1.718.073-2.338.445-.413.248-.72.656-.888 1.162C2.059 5.114 2 5.722 2 6.5v11c0 .778.059 1.391.25 1.908.191.517.553.927 1.027 1.164.95.475 2.223.428 4.223.428h10c1.5 0 2.556.05 3.383-.445.413-.248.72-.656.888-1.162.17-.507.229-1.115.229-1.893v-8c0-.778-.06-1.386-.229-1.893-.168-.506-.475-.914-.888-1.162C20.056 5.95 19 6 17.5 6h-3.793l-2.853-2.854a.5.5 0 0 0-.092-.07.5.5 0 0 0-.032-.017.5.5 0 0 0-.09-.038.5.5 0 0 0-.019-.005A.5.5 0 0 0 10.5 3h-4c-.375 0-.722-.003-1.045 0zM6.5 4h3.793l2.5 2.5-2.502 2.502H6.5c-1.5 0-2.556-.05-3.383.445-.04.024-.079.051-.117.078V6.5c0-.722.065-1.239.178-1.576.112-.338.243-.492.455-.62C4.056 4.052 5 4 6.5 4zm7.207 3H17.5c1.5 0 2.444.05 2.867.305.212.127.343.281.455.619.113.337.178.854.178 1.576v8c0 .722-.065 1.239-.178 1.576-.112.338-.243.492-.455.62C19.944 19.948 19 20 17.5 20h-10c-2 0-3.226-.047-3.777-.322-.276-.138-.414-.29-.535-.617C3.066 18.734 3 18.222 3 17.5v-4.998c0-.722.065-1.239.178-1.576.112-.338.243-.494.455-.621.423-.254 1.367-.303 2.867-.303h4a.5.5 0 0 0 .033-.006.5.5 0 0 0 .121-.023.5.5 0 0 0 .065-.028.5.5 0 0 0 .115-.076.5.5 0 0 0 .02-.015L13.707 7z"/></svg>
